X: 31
T: PRINCE ALBERT
%R: hornpipe, reel
B: Jean White "100 Popular Hornpipes, Reels, Jigs and Country Dances", Boston 1880 p.13
F: http://www.loc.gov/resource/sm1880.09124.0#seq-1
Z: 2014 John Chambers <jc:trillian.mit.edu>
M: C|
L: 1/8
K: A
% - - - - - - - - - - - - - - - - - - - - - - - - - - - - -
A2 |\
c3d (3efe (3dcB | Aaga fedc |\
fdcd ecac | BcdB AGFE |
c3d (3efe (3dcB | Aaga fedc |\
defd BdBG | A2 (3Ace a2 :|
|: A2 |\
e3g bgec | defg aedc |\
fefg aedc | BcdB AGFE |
c3d (3efe (3dcB | Aaga fedc |\
fdBd EdBG | A2 (3CEA A2 H:|
% - - - - - - - - - - - - - - - - - - - - - - - - - - - - -

%%sep 1 1 500
%%sep 1 1 500
